**kern
*clefG2
*k[]
*M2/2
*met(c|)
=1
4a
(4.ee
16ddLL
16ccJJ)
8b
(16ccLL
16bJJ
=2
4a)
8g
8e
2b
=3
8cc
8a
(4.ee
16ddLL
16ccJJ)
8b
(16ccLL
16bJJ
=4
2a)
2g
!!linebreak:original
=5
4a
(4.ee
16ddLL
16ccJJ)
8b
(16ccLL
16bJJ
=6
4a)
8g
8e
2b
=7
8cc
8a
(4.ee
16ddLL
16ccJJ)
8b
(16ccLL
16bJJ
=8
(1a)
=9
8aa)
8r
4r
2r
==
*-
!!!system-decoration: [(s1
